X:63
T:Farmer's daughter (Pengelly)
%%VWML:SBG-1-2-489-0
F:http://www.vwml.org/record/SBG/1/2/489
Z:Original Sibelius transcriptions by M. & S. Graebe
M:4/4
I:linebreak $
K:G
V:1 treble nm="P1"
V:1
 d | G G A B | (c d) e d | B G G G | G2 z d | g g e f |$ d2 B B | A A B ^c | d2 z d | g g e f | %10
 d2 B B |$ c d e e | d2 z d | G G A B | c d e d | B G G G | G2 x2 | %17
T:Farmer's daughter (Kidson p 54)
F:http://www.vwml.org/record/SBG/1/2/489
Z:Original Sibelius transcriptions by M. & S. Graebe
M:4/4
I:linebreak $
K:C
V:1 treble nm="P1"
V:1
 !fermata!G | F E C C | (E3/2 F/) G D/E/ | F E C C | C3 C | E E G G |$ c2 c G/A/ | _B B A F | %8
 G3 C | E E G G | c2 c G/A/ |$ _B B A F | G3 F/ E/ | C C D E | F F G D/E/ | F E C C | C2 x2 | %17
T:Farmer's daughter (Gerard)
F:http://www.vwml.org/record/SBG/1/2/489
Z:Original Sibelius transcriptions by M. & S. Graebe
M:4/4
I:linebreak $
K:F
V:1 treble nm="P1"
V:1
 c | F F G A | d2 c G | B A F F | F3 c | f f d f |$ c2 A _B | G G A =B | c3 c | f f d f | c2 d e |$ %11
 f f e d | c3 c/A/ | F F G A | d2 c A | B A F F | F4 | %17

